panels/user-accounts/data/icons/print_ok.svg

<?xml version="1.0" encoding="UTF-8" standalone="no"?>
<!-- Generator: Adobe Illustrator 13.0.2, SVG Export Plug-In . SVG Version: 6.00 Build 14948)  -->

<svg
   version="1.0"
   x="0px"
   y="0px"
   width="48"
   height="48"
   viewBox="0 0 48 48"
   enable-background="new 0 0 36.184 43.865"
   xml:space="preserve"
   id="svg2419"
   sodipodi:version="0.32"
   inkscape:version="1.1 (c68e22c387, 2021-05-23)"
   sodipodi:docname="print_ok.svg"
   inkscape:output_extension="org.inkscape.output.svg.inkscape"
   inkscape:export-filename="/Users/mlanglie/Desktop/Fingerprint Enrollment Icons/Vector/print_ok.png"
   inkscape:export-xdpi="90"
   inkscape:export-ydpi="90"
   xmlns:inkscape="http://www.inkscape.org/namespaces/inkscape"
   xmlns:sodipodi="http://sodipodi.sourceforge.net/DTD/sodipodi-0.dtd"
   xmlns:xlink="http://www.w3.org/1999/xlink"
   xmlns="http://www.w3.org/2000/svg"
   xmlns:svg="http://www.w3.org/2000/svg"
   xmlns:rdf="http://www.w3.org/1999/02/22-rdf-syntax-ns#"
   xmlns:cc="http://creativecommons.org/ns#"
   xmlns:dc="http://purl.org/dc/elements/1.1/"><metadata
   id="metadata2435"><rdf:RDF><cc:Work
       rdf:about=""><dc:format>image/svg+xml</dc:format><dc:type
         rdf:resource="http://purl.org/dc/dcmitype/StillImage" /></cc:Work></rdf:RDF></metadata><defs
   id="defs2433"><linearGradient
   inkscape:collect="always"
   id="linearGradient84104"><stop
     style="stop-color:#fffffc;stop-opacity:1;"
     offset="0"
     id="stop84106" /><stop
     style="stop-color:#fffffc;stop-opacity:0;"
     offset="1"
     id="stop84108" /></linearGradient><linearGradient
   id="linearGradient84076"><stop
     style="stop-color:#73d216;stop-opacity:1;"
     offset="0"
     id="stop84078" /><stop
     id="stop84090"
     offset="0.31459025"
     style="stop-color:#73d216;stop-opacity:1;" /><stop
     style="stop-color:#4e9a06;stop-opacity:1;"
     offset="1"
     id="stop84080" /></linearGradient><linearGradient
   id="linearGradient3531"><stop
     id="stop3533"
     offset="0"
     style="stop-color:#9b9b9b;stop-opacity:1;" /><stop
     id="stop3535"
     offset="1"
     style="stop-color:#414141;stop-opacity:1;" /></linearGradient><linearGradient
   id="linearGradient3483"><stop
     id="stop3485"
     offset="0"
     style="stop-color:#000000;stop-opacity:1;" /><stop
     id="stop3487"
     offset="1"
     style="stop-color:#787878;stop-opacity:1" /></linearGradient><linearGradient
   id="linearGradient3263"><stop
     id="stop3265"
     offset="0"
     style="stop-color:#ffffff;stop-opacity:1;" /><stop
     id="stop3267"
     offset="1"
     style="stop-color:#ffffff;stop-opacity:0;" /></linearGradient><linearGradient
   id="linearGradient3247"><stop
     style="stop-color:#52a714;stop-opacity:1;"
     offset="0"
     id="stop3249" /><stop
     style="stop-color:#398800;stop-opacity:1;"
     offset="1"
     id="stop3251" /></linearGradient><linearGradient
   id="linearGradient3233"><stop
     id="stop3235"
     offset="0"
     style="stop-color:#398800;stop-opacity:1;" /><stop
     id="stop3237"
     offset="1"
     style="stop-color:#84c706;stop-opacity:1;" /></linearGradient><inkscape:perspective
   sodipodi:type="inkscape:persp3d"
   inkscape:vp_x="0 : 24.000001 : 1"
   inkscape:vp_y="0 : 1094.2665 : 0"
   inkscape:vp_z="47.999997 : 24.000001 : 1"
   inkscape:persp3d-origin="23.999999 : 16 : 1"
   id="perspective2437" />
	
	

		
		
	<linearGradient
   inkscape:collect="always"
   xlink:href="#linearGradient3233"
   id="linearGradient3517"
   gradientUnits="userSpaceOnUse"
   x1="25.144751"
   y1="43.865002"
   x2="25.144751"
   y2="23.838018" /><linearGradient
   inkscape:collect="always"
   xlink:href="#linearGradient3247"
   id="linearGradient3519"
   gradientUnits="userSpaceOnUse"
   x1="30.691881"
   y1="23.365002"
   x2="30.691881"
   y2="44.365963" /><linearGradient
   inkscape:collect="always"
   xlink:href="#linearGradient3263"
   id="linearGradient3521"
   gradientUnits="userSpaceOnUse"
   x1="26.455547"
   y1="24.322035"
   x2="26.455547"
   y2="30.466549" /><linearGradient
   gradientUnits="userSpaceOnUse"
   y2="55.692348"
   x2="18.072493"
   y1="29.205048"
   x1="21.55229"
   id="linearGradient5138"
   xlink:href="#linearGradient5132"
   inkscape:collect="always" /><linearGradient
   id="linearGradient5132"
   inkscape:collect="always"><stop
     id="stop5134"
     offset="0"
     style="stop-color:white;stop-opacity:1;" /><stop
     id="stop5136"
     offset="1"
     style="stop-color:white;stop-opacity:0;" /></linearGradient><linearGradient
   id="linearGradient1913"><stop
     id="stop1915"
     offset="0"
     style="stop-color:#73d216;stop-opacity:1" /><stop
     id="stop1917"
     offset="1"
     style="stop-color:#8ae234;stop-opacity:1" /></linearGradient><inkscape:perspective
   id="perspective84036"
   inkscape:persp3d-origin="31.837276 : 17.508264 : 1"
   inkscape:vp_z="63.674552 : 26.262396 : 1"
   inkscape:vp_y="0 : 1094.2665 : 0"
   inkscape:vp_x="0 : 26.262396 : 1"
   sodipodi:type="inkscape:persp3d" /><radialGradient
   inkscape:collect="always"
   xlink:href="#linearGradient84076"
   id="radialGradient84088"
   cx="26.183998"
   cy="40.111427"
   fx="26.183998"
   fy="40.111427"
   r="10.5"
   gradientUnits="userSpaceOnUse"
   gradientTransform="matrix(0.9228377,7.3282173e-8,-7.9001009e-8,0.8924238,2.0204218,4.4167191)" /><linearGradient
   inkscape:collect="always"
   xlink:href="#linearGradient3263"
   id="linearGradient84092"
   gradientUnits="userSpaceOnUse"
   x1="26.455547"
   y1="24.322035"
   x2="26.455547"
   y2="30.466549" /><linearGradient
   inkscape:collect="always"
   xlink:href="#linearGradient84104"
   id="linearGradient84110"
   x1="28.185518"
   y1="22.649143"
   x2="27.596079"
   y2="42.648415"
   gradientUnits="userSpaceOnUse" /><linearGradient
   inkscape:collect="always"
   xlink:href="#linearGradient3263"
   id="linearGradient84136"
   gradientUnits="userSpaceOnUse"
   x1="26.455547"
   y1="24.322035"
   x2="26.455547"
   y2="30.466549" /><linearGradient
   inkscape:collect="always"
   xlink:href="#linearGradient84104"
   id="linearGradient84138"
   gradientUnits="userSpaceOnUse"
   x1="21.515692"
   y1="23.09075"
   x2="34.488232"
   y2="40.661182" /></defs><sodipodi:namedview
   inkscape:window-height="713"
   inkscape:window-width="1222"
   inkscape:pageshadow="2"
   inkscape:pageopacity="0.0"
   guidetolerance="10.0"
   gridtolerance="10.0"
   objecttolerance="10.0"
   borderopacity="1.0"
   bordercolor="#666666"
   pagecolor="#ffffff"
   id="base"
   showgrid="true"
   inkscape:zoom="4.399364"
   inkscape:cx="39.372624"
   inkscape:cy="7.0437262"
   inkscape:window-x="15"
   inkscape:window-y="165"
   inkscape:current-layer="svg2419"
   inkscape:pagecheckerboard="1"
   scale-x="1"><inkscape:grid
     type="xygrid"
     id="grid141" /></sodipodi:namedview>
<g
   id="Background">
</g>
<g
   id="Guides">
</g>

<path
   id="path5539"
   style="color:#000000;font-style:normal;font-variant:normal;font-weight:normal;font-stretch:normal;font-size:medium;line-height:normal;font-family:sans-serif;font-variant-ligatures:normal;font-variant-position:normal;font-variant-caps:normal;font-variant-numeric:normal;font-variant-alternates:normal;font-variant-east-asian:normal;font-feature-settings:normal;font-variation-settings:normal;text-indent:0;text-align:start;text-decoration:none;text-decoration-line:none;text-decoration-style:solid;text-decoration-color:#000000;letter-spacing:normal;word-spacing:normal;text-transform:none;writing-mode:lr-tb;direction:ltr;text-orientation:mixed;dominant-baseline:auto;baseline-shift:baseline;text-anchor:start;white-space:normal;shape-padding:0;shape-margin:0;inline-size:0;clip-rule:nonzero;display:inline;overflow:visible;visibility:visible;isolation:auto;mix-blend-mode:normal;color-interpolation:sRGB;color-interpolation-filters:linearRGB;solid-color:#000000;solid-opacity:1;vector-effect:none;fill:#77767b;fill-opacity:1;fill-rule:nonzero;stroke:none;stroke-width:4;stroke-linecap:round;stroke-linejoin:round;stroke-miterlimit:4;stroke-dasharray:none;stroke-dashoffset:56;stroke-opacity:1;color-rendering:auto;image-rendering:auto;shape-rendering:auto;text-rendering:auto;enable-background:accumulate;stop-color:#000000"
   d="M 17,3 C 14.597801,2.9754 12.189838,3.5695701 10.023438,4.78125 9.0588013,5.3203571 8.7141918,6.5396092 9.2539062,7.5039062 9.792918,8.4662184 11.009253,8.8104972 11.972656,8.2734375 15.072136,6.5398576 18.850682,6.5783401 21.914062,8.375 c 3.06336,1.79664 4.941427,5.07358 4.941407,8.625 v 2 c 0,1.10457 0.89543,2 2,2 1.10457,0 2,-0.89543 2,-2 v -2 c -7.64e-4,-0.07706 -0.006,-0.154011 -0.01563,-0.230469 C 30.758844,11.894332 28.152739,7.3940748 23.9375,4.921875 21.79634,3.6661151 19.40218,3.02456 17,3 Z M 6.6015625,8.6601562 C 5.9342787,8.6817587 5.3217766,9.0348999 4.96875,9.6015625 3.6381501,11.739923 2.92656,14.200184 2.875,16.714844 v 0.0039 C 2.8618818,16.811924 2.8553552,16.905907 2.8554688,17 v 10.125 c -1e-7,1.10457 0.8954305,2 2,2 1.1045695,0 2.0000001,-0.89543 2,-2 V 17 c 0,-1.86766 0.5249988,-3.699457 1.5117187,-5.285156 C 8.9496328,10.776384 8.6610739,9.5434505 7.7226562,8.9609375 7.3869089,8.7520555 6.9967774,8.6473861 6.6015625,8.6601562 Z M 16.855469,9 C 12.59315,9 9.1026113,12.399521 8.8945312,16.613281 8.8689855,16.740613 8.855903,16.870131 8.8554688,17 v 2 c -1e-7,1.10457 0.8954306,2 2.0000002,2 1.10457,0 2,-0.89543 2,-2 v -2 c 0,-2.23292 1.767201,-4 4,-4 2.2328,0 4,1.76708 4,4 v 10 c 0,0 0.018,0.879833 0.351562,1.882812 0.171749,0.515258 0.431877,1.107379 0.810547,1.728516 0.659257,-1.690828 1.620907,-3.247471 2.837891,-4.59375 V 17 c 3.38e-4,-0.133785 -0.01275,-0.267266 -0.03906,-0.398438 C 24.602306,12.393262 21.113809,9 16.855469,9 Z m 0,6 c -1.10457,0 -2,0.89543 -2,2 v 10 c 0,0 -0.0012,1.189485 0.289062,2.640625 0.29024,1.45114 0.825475,3.302038 2.296875,4.773437 0.781014,0.780847 2.047111,0.780847 2.828125,0 0.780847,-0.781014 0.780847,-2.04711 0,-2.828124 -0.5286,-0.528601 -0.993365,-1.677703 -1.203125,-2.726563 C 18.856626,27.810515 18.855469,27 18.855469,27 V 17 c 0,-1.10457 -0.89543,-2 -2,-2 z m -6,8 c -1.1045696,0 -2.0000003,0.89543 -2.0000002,2 v 6 c -1e-7,1.10457 0.8954306,2 2.0000002,2 1.10457,0 2,-0.89543 2,-2 v -6 c 0,-1.10457 -0.89543,-2 -2,-2 z"
   sodipodi:nodetypes="ccccccssscccccccccsssscccsccssssssccccccssscccccccsssssssss" /><path
   id="path2246"
   style="display:inline;fill:#26a269;fill-opacity:1;stroke-width:2.25;stroke-linecap:square;stroke-linejoin:round;enable-background:new"
   d="M 36 24 C 29.372583 24 24.000001 29.37258 24 36 C 23.999412 42.565155 29.274686 48 35.839844 48 C 35.893388 48 35.94645 48.00036 36 48 C 42.627417 48 47.999998 42.62742 48 36 C 47.999998 29.37258 42.627417 24 36 24 z M 42.154297 31.005859 A 2 2 0 0 1 43.517578 31.699219 A 2 2 0 0 1 43.300781 34.517578 L 34.894531 41.724609 L 29.585938 36.414062 A 2 2 0 0 1 29.585938 33.585938 A 2 2 0 0 1 32.414062 33.585938 L 35.105469 36.275391 L 40.699219 31.482422 A 2 2 0 0 1 42.154297 31.005859 z " /></svg>

<svg version="1.0" width="48" height="48" xml:space="preserve" xmlns="http://www.w3.org/2000/svg"><defs><linearGradient id="f"><stop style="stop-color:#fffffc;stop-opacity:1" offset="0"/><stop style="stop-color:#fffffc;stop-opacity:0" offset="1"/></linearGradient><linearGradient id="e"><stop style="stop-color:#73d216;stop-opacity:1" offset="0"/><stop offset=".315" style="stop-color:#73d216;stop-opacity:1"/><stop style="stop-color:#4e9a06;stop-opacity:1" offset="1"/></linearGradient><linearGradient id="c"><stop offset="0" style="stop-color:#fff;stop-opacity:1"/><stop offset="1" style="stop-color:#fff;stop-opacity:0"/></linearGradient><linearGradient id="b"><stop style="stop-color:#52a714;stop-opacity:1" offset="0"/><stop style="stop-color:#398800;stop-opacity:1" offset="1"/></linearGradient><linearGradient id="a"><stop offset="0" style="stop-color:#398800;stop-opacity:1"/><stop offset="1" style="stop-color:#84c706;stop-opacity:1"/></linearGradient><linearGradient id="d"><stop offset="0" style="stop-color:white;stop-opacity:1"/><stop offset="1" style="stop-color:white;stop-opacity:0"/></linearGradient></defs><path style="color:#000;font-style:normal;font-variant:normal;font-weight:400;font-stretch:normal;font-size:medium;line-height:normal;font-family:sans-serif;font-variant-ligatures:normal;font-variant-position:normal;font-variant-caps:normal;font-variant-numeric:normal;font-variant-alternates:normal;font-variant-east-asian:normal;font-feature-settings:normal;font-variation-settings:normal;text-indent:0;text-align:start;text-decoration:none;text-decoration-line:none;text-decoration-style:solid;text-decoration-color:#000;letter-spacing:normal;word-spacing:normal;text-transform:none;writing-mode:lr-tb;direction:ltr;text-orientation:mixed;dominant-baseline:auto;baseline-shift:baseline;text-anchor:start;white-space:normal;shape-padding:0;shape-margin:0;inline-size:0;clip-rule:nonzero;display:inline;overflow:visible;visibility:visible;isolation:auto;mix-blend-mode:normal;color-interpolation:sRGB;color-interpolation-filters:linearRGB;solid-color:#000;solid-opacity:1;vector-effect:none;fill:#77767b;fill-opacity:1;fill-rule:nonzero;stroke:none;stroke-width:4;stroke-linecap:round;stroke-linejoin:round;stroke-miterlimit:4;stroke-dasharray:none;stroke-dashoffset:56;stroke-opacity:1;color-rendering:auto;image-rendering:auto;shape-rendering:auto;text-rendering:auto;enable-background:accumulate;stop-color:#000" d="M17 3c-2.402-.025-4.81.57-6.977 1.781a2 2 0 0 0 1.95 3.492 9.994 9.994 0 0 1 9.941.102A9.991 9.991 0 0 1 26.855 17v2a2 2 0 1 0 4 0v-2c0-.077-.006-.154-.015-.23a14.002 14.002 0 0 0-6.902-11.848A13.986 13.986 0 0 0 17 3ZM6.602 8.66a2 2 0 0 0-1.633.942 13.997 13.997 0 0 0-2.094 7.113v.004a2 2 0 0 0-.02.281v10.125a2 2 0 1 0 4 0V17c0-1.868.525-3.7 1.512-5.285A2 2 0 0 0 6.602 8.66ZM16.855 9c-4.262 0-7.752 3.4-7.96 7.613a2 2 0 0 0-.04.387v2a2 2 0 1 0 4 0v-2c0-2.233 1.768-4 4-4 2.233 0 4 1.767 4 4v10s.018.88.352 1.883c.172.515.432 1.107.81 1.728.66-1.69 1.621-3.247 2.838-4.593V17a2 2 0 0 0-.039-.398C24.602 12.393 21.114 9 16.856 9Zm0 6a2 2 0 0 0-2 2v10s0 1.19.29 2.64c.29 1.452.825 3.303 2.296 4.774a2 2 0 0 0 2.829-2.828c-.53-.529-.994-1.678-1.204-2.727-.21-1.048-.21-1.859-.21-1.859V17a2 2 0 0 0-2-2zm-6 8a2 2 0 0 0-2 2v6a2 2 0 1 0 4 0v-6a2 2 0 0 0-2-2z"/><path style="display:inline;fill:#26a269;fill-opacity:1;stroke-width:2.25;stroke-linecap:square;stroke-linejoin:round;enable-background:new" d="M36 24c-6.627 0-12 5.373-12 12 0 6.565 5.275 12 11.84 12H36c6.627 0 12-5.373 12-12s-5.373-12-12-12zm6.154 7.006a2 2 0 0 1 1.364.693 2 2 0 0 1-.217 2.819l-8.406 7.207-5.31-5.31a2 2 0 0 1 0-2.83 2 2 0 0 1 2.83 0l2.69 2.69 5.594-4.793a2 2 0 0 1 1.455-.476z"/></svg>
